X:1
T:Title
%%score 1 2 3
L:1/8
M:4/4
K:C
V:1 treble-8 nm="unbenannt1"
V:2 treble-8 nm="unbenannt2"
V:3 bass nm="unbenannt3"
V:1
"^Claudio Monteverdi\n1567-1643""^13. Ardo e scoprir, ahi lasso, io non ardisco\nA doi Tenori\nfrom Madrigal Book VIII" F8 | %1
w: Ar-|
 F4 z4 | A8 | A4 z4 | B2 B2 z4 | f>e f4 f2 | z2 dd d2 c2- | c2 _B4 A2 | dd d2 c4 | _B4- BAAG | %10
w: do|Ar-|do|Ar- do|Ar- * * do|e sco- prir ahi|* las- so|e sco- prir ahi|las- * so~io non ar-|
 G4 G2 FF | F2 FE E4 | z2 D2 D2 D2 | E8 | D8 | d2 f3 eed | d2 d2 z4 | d2 d3 cc_B | _B4- BAAG | %19
w: di- sco quel che|por- to nel sen|rin- chiu- so~ar-|do-|re|e tan- to più do-|len- te|e tan- to più do-|len- * te~o- gni~hor lan-|
 G3 G G>G GG/G/ | F2 F2 z2 F2 | E4 D4 | D4 ^C4 | D8 | z2 D2 D3 C | C4 F2 FF | F3 C D4 | %27
w: gui- sco quan- to più sta ce-|la- to il|mio do-|lo- *|re|fra me ta-|l'hor mil- le di-|se- gni~or- di-|
 D2 DD D2 DE | F2 F3 F F2 | F6 E2 | F8 | z2 FF F2 FE | G2 G2 z GGG | G2 G^F Gd d2 | B2 z2 z d d2 | %35
w: sco con la lin- gua di-|scior an- co~il ti-|mo- *|re|e all' hor fat- to~ar-|di- to i' non pa-|ven- to gri- dar soc- cor-|so soc- cor-|
 B2 ee e/e/e/e/ ee/e/ | ee e2 ^c2 z2 | z ^f f3 _eee | g3 g ^f4 | e4 z4 | z2 B4 A2 | G2 GG G>G G>F | %42
w: so non pa- ven- to non pa- ven- to gri-|dar soc- cor- so|soc- cor- so~al mi- ci-|dial tor- men-|to|ma s'av-|vien ch'io m'ap- pres- si~a lei da-|
 A4 A2 AA | A2 AB c4 | c4 c2 d2 | d8 | c8 | z _BBB B3 B | G>G GG F2 F2 | _EE E2 E3 E | D3 D G2 F2 | %51
w: van- te per tro-|var al mio mal|pa- ce~e di-|let-|to|di- ven- go to- sto|pal- li- do~in sem- bian- te|e chi- nar gl'oc- chi~a|ter- ra son co-|
 E8 | D8 | A>G A2 d2 z2 | f2 z2 g>f g2 | z2 A4 G2 | ^F4 F4 | z2 A4 A2 | z2 A2 _B2 B2 | z4 z2 _B2 | %60
w: stret-|to|dir vor- rei dir|dir dir vor- rei|ma non|o- so|in- di|tre- man- te|co-|
 c2 c2 z2 c2 | d2 d2 z2 d2 | e2 e2 z4 | z4 z FFF | F4 G4 | E8 | A2 c>B c4 | c3 c c2 cc/B/ | %68
w: min- cio tre-|man- te tre-|man- te|e mi ri-|ten- *|go|al- fin l'af- fet-|to s'a- prir nun- tia del|
 d3 e c2 c2 | d8 | c8 |[M:3/1] e8 d8 z8 | c8 B8 z8 | A8 G8 z8 | F8 E8 z8 | A8 ^G8 z8 | A8 z8 z8 | %77
w: cor la lin- gua|vo-|le|si tron-|ca su|le lab-|bra le|pa- ro-|le|
 c8 B8 z8 | A8 G8 z8 | F8 E8 z8 | D8 C8 z8 | z24 | D8 ^C8 z8 | D8 z8 z8 |] %84
w: si tron-|ca su|le- lab-|bra le||pa- ro-|le.|
V:2
 D8 | D4 z4 | F8 | F4 z4 | A2 A2 z4 | d>c d4 d2 | z8 | z2 dd d2 c2- | c2 _B3 AAG | G4- GFFE | %10
w: Ar-|do|Ar-|do|Ar- do|Ar- * * do||e sco- prir ahi|* las- so e sco-|prir ahi las- so~io non|
 E4 E2 DD | D2 DD ^C4 | z2 D2 D2 D2 | D4 ^C4 | D8 | z8 | z8 | d2 f3 eed | d4- dcc_B | %19
w: ar- di- sco quel|che por- to nel|sen rin- chiu-|so~ar- do-|re|||e tan- to più do-|len- te o- gni~hor lan-|
 _B3 B B>B BB/A/ | A2 A2 z2 A2 | G4 F4 | E8 | D8 | z8 | z8 | z8 | z8 | z8 | z8 | z8 | z8 | z8 | %33
w: gui- sco quan- to più sta ce-|la- to il|mio do-|lo-|re||||||||||
 z8 | z d d2 B2 z2 | z2 ee e/e/e/e/ ee/e/ | e2 z2 z e e2- | e^ccc ^f4- | f2 e2 e3 _e | e4 z4 | %40
w: |Soc- cor- so|non pa- ven- to non pa- ven- to gri-|dar soc- cor-|* so~al mi- ci- dial|* tor- ment- *|to|
 z2 G4 E2 | E2 EE E>E E>D | F4 F2 FF | F2 FG A4 | c4 c2 c2 | c6 B2 | c4 z4 | z GGG G3 G | %48
w: ma s'av-|vien ch'io m'ap- pres- si~a lei da-|van- te per tro-|var al mio mal|pa- ce~e di-|let- *|to|di- ven- go to- sto|
 _E>E EE D2 D2 | CC C2 C3 C | D3 D D2 D2 | D6 ^C2 | D8 | F>E F2 A2 z2 | d2 z2 e>d e2 | z2 E4 E2 | %56
w: pal- li- do~in sem- bian- te|e chi- nar gl'oc- chi~a|ter- ra son co-|stret- *|to|dir vor- rei dir|dir dir vor- rei|ma non|
 D4 D4 | z8 | z2 ^F4 F2 | z2 ^F2 G2 G2 | z2 G2 A2 A2 | z2 A2 _B2 B2 | z2 B2 ^c2 c2 | z4 z DDD | %64
w: o- so||in- di|tre- man- te|co- min- cio|tre- man- te|co- min- cio|e mi ri-|
 D8- | D4 ^C4 | F2 A>G A4 | A3 A G2 GG/A/ | B3 c A2 c2 | c4 B4 | c8 |[M:3/1] z24 | z24 | z24 | %74
w: ten-|* go|al- fin l'af- fet-|to s'a- prir nun- tia del|cor la lin- gua|vo- *|le||||
 z24 | z24 | z24 | z24 | f8 e8 z8 | d8 c8 z8 | _B8 A8 z8 | G8 F8 z8 | E8 E8 z8 | D12 |] %84
w: ||||si tron-|ca su|le lab-|bra le|pa- ro-|le|
V:3
 D,8 | D,4 z4 | D,8 | D,4 z4 | D,4 z4 | D,8 | D,8 | D,8 | D,8 | G,,8 | G,,8 | z4 A,,4 | _B,,8 | %13
 A,,8 | _E,8 | D,8 | D,4 z4 | D,8 | D,8- | D,4 ^C,4 | D,8 | G,,8 | A,,8 | D,8 | _B,,8 | F,,8 | %26
 F,,4 _B,,4 | _B,,8 | F,,8 | C,8 | F,,8 | F,,8 | C,4 C,4 | C,2 A,,2 G,,2 ^F,2 | G,2 D,2 G,2 ^F,2 | %35
 G,4 ^G,4 | A,2 ^G,2 A,2 G,2 | A,4 B,4 | B,8 | E,4 z4 | E,8 | C,8 | F,8 | F,8 | A,8 | G,8 | C,8 | %47
 G,,8 | _E,4 _B,,4 | C,8 | G,,8 | A,,8 | D,8 | D,8 | D,8 | ^C,8 | D,8 | D,8 | D,8 | D,4 _E,4 | %60
 E,4 F,4 | ^F,4 G,4 | ^G,4 A,4 | z4 D,4 | _B,,8 | A,,8 | F,,4 F,4 | F,4 C,4 | G,4 A,4 | G,8 | C,8 | %71
[M:3/1] C8 G,8 z8 | A,8 E,8 z8 | F,8 C,8 z8 | D,8 A,,8 z8 | F,,8 E,,8 z8 | A,,8 z8 z8 | %77
 A,8 E,8 z8 | F,8 C,8 z8 | D,8 A,,8 z8 | _B,,8 F,,8 z8 | G,,8 A,,8 z8 | _B,,8 A,,8 z8 | D,12 |] %84

